!!!Genre:	Freylekhs (fun der khupe)
!!!Mode:	Minor
!!!Listening/dance:	listening
!!!One_Mode:	yes
!!!Orig_tonic: G
**kern
*thru
*I"P1
*clefG2
*k[b-e-]
*g:
*M2/4
*>A
=1
8r
8dL
8g
8aJ
=2
4b-
4a
=3
4b-
4a
=4
2g
=5
8r
8dL
8g
8aJ
=6
(8b-L
8dd)
(8a
8ddJ)
=7
4b-
4a
=8
2g
=9
8r
8gL
8b-
8ddJ
=10
4gg
4gg
=11
(8ggL
16aa-XL
16ggJJ
8ffL)
8ee-J
=12
2dd
=13
(8ddL
16ee-L
16ddJJ
8ccL)
8b-J
=14
4ff
4b-
=15
8ccL
16ddL
16ccJJ
8b-L
8aJ
=16
2g
=17||
*>B
8r
8fL
8b-
(8qdd/
8ccJ)
=18
2dd
=19
8ddL
16ee-L
16ddJJ
8ccL
8b-J
=20
2dd
=21
8ddL
16ee-L
16ddJJ
8ccL
8b-J
=22
8ddL
16ee-L
16ddJJ
8ccL
8b-J
=23
8ddL
16ee-L
16ddJJ
8ccL
8b-J
=24
2dd
=25
4b-
(8qdd/
4cc)
=26
8ddL
8cc
8b-
8aJ
=27
4g
(8qff#X/
4gg)
=28
4dd
4b-
=29
4b-
(8qdd/
4cc)
=30
(8qee-/
8ddL)
8cc
8b-
8aJ
=31
[2g
=32
4g]
4r
=33||
[2dd
=34
8ddL]
8ee-
8ff#X
(8qaa/
8ggJ)
=35
(8qbb-/
[2aa)
=36
8aaL]
8ddJ
12bb-L
12aa
12ggJ
=37
4ff#X
(8qaa/
4gg)
=38
8aaL
8ggJ
12bb-L
12aa
12ggJ
=39
4.gg
8ddd
=40
12dddL
12ccc#X
12bb-J
12bb-L
12aa
12ggJ
=41
[2dd
=42
8ddL]
8ee-
8ff#X
8ggJ
=43
[2aa
=44
8aaL]
8ddJ
12bb-L
12aa
12ggJ
=45
4ff#X
(8qaa/
4gg)
=46
(8qbb-/
8aaL)
8ggJ
12bb-L
12aa
12ggJ
=47
[2gg
=48
2gg]
==
*-
